X:27
T:Essex March,The. BC.27
M:2/4
L:1/8
Q:180
S:Benjamin Cooke MS.circa 1770, F.Kidson Coll.
R:March
O:England
A:x
Z:vmp.John Bagnall
K:G
|: d2 dc | B3  A | GBAG | A2 D2 | GBAc | .Bc.dg | B2 cA | G4 :|
|: d2 dB | e2 ed | cBcA | d3 c | BBAG | ggff | eed^c | d4 :|]

